icons/clone.svg

<?xml version="1.0" standalone="no"?><!-- Generator: Gravit.io --><svg xmlns="http://www.w3.org/2000/svg" xmlns:xlink="http://www.w3.org/1999/xlink" width="96" height="96"><path d=" M 48 24.03770026693 C 42.841832538223045 20.151892449358748 36.54749817789733 17.999999999999996 30 18 C 22.031249999999996 17.999999999999996 14.437499999999996 21.187499999999996 8.8125 26.8125 C 3.1874999999999964 32.4375 -3.552713678800501e-15 40.03125 0 48 L 0 48 C -3.552713678800501e-15 55.96875 3.1874999999999964 63.5625 8.8125 69.1875 C 14.437499999999996 74.8125 22.031249999999996 78 30 78 C 36.54749817789733 78 42.841832538223045 75.84810755064126 48 71.96229973307 C 53.158167461776955 75.84810755064126 59.452501822102676 78 66 78 C 73.96875 78 81.5625 74.8125 87.1875 69.1875 C 92.8125 63.5625 96 55.96875 96 48 C 96 40.03125 92.8125 32.4375 87.1875 26.8125 C 81.5625 21.1875 73.96875 18 66 18 C 59.452501822102676 18 53.15816746177697 20.15189244935875 48 24.03770026693 Z  M 53.41206095702 29.33008106861 C 57.6518317738374 34.597086414699035 60 41.16041566463407 60 48 C 60 54.83958433536593 57.65183177383741 61.40291358530096 53.41206095702 66.66991893139 C 57.090337030729614 69.16095002658746 61.46482551696006 70.5 66 70.5 C 72 70.5 77.71875 68.15625 81.9375 63.9375 C 86.15625 59.71875 88.5 54 88.5 48 C 88.5 42 86.15625 36.28125 81.9375 32.0625 C 77.71875 27.84375 72 25.5 66 25.5 C 61.464825516960055 25.5 57.090337030729614 26.839049973412543 53.41206095702 29.33008106861 Z  M 42.58793904298 29.33008106861 C 38.90966296927039 26.83904997341254 34.53517448303995 25.499999999999996 30 25.5 C 23.999999999999996 25.499999999999996 18.281249999999996 27.843749999999996 14.0625 32.0625 C 9.843749999999996 36.28125 7.4999999999999964 42 7.5 48 L 7.5 48 C 7.4999999999999964 54 9.843749999999996 59.71875 14.0625 63.9375 C 18.281249999999996 68.15625 23.999999999999996 70.5 30 70.5 C 34.535174483039945 70.5 38.90966296927039 69.16095002658746 42.58793904298 66.66991893139 C 38.348168226162606 61.40291358530096 36.00000000000001 54.83958433536593 36 48 L 36 48 C 36.00000000000001 41.16041566463407 38.348168226162606 34.597086414699035 42.58793904298 29.33008106861 Z  M 48 34.43728634112 C 50.91269008174107 38.31503687707953 52.5 43.06227984344423 52.5 48 C 52.5 52.93772015655577 50.91269008174107 57.68496312292047 48 61.56271365888 C 45.08730991825894 57.68496312292047 43.50000000000001 52.93772015655577 43.5 48 L 43.5 48 C 43.50000000000001 43.06227984344423 45.08730991825894 38.31503687707953 48 34.43728634112 Z " fill-rule="evenodd" fill="#454545" stroke="none"/><mask id="_mask_Ns3KKUUZ6vFPIxTemiPZd0J7AHYaryyZ"><path d=" M 48 24.03770026693 C 42.841832538223045 20.151892449358748 36.54749817789733 17.999999999999996 30 18 C 22.031249999999996 17.999999999999996 14.437499999999996 21.187499999999996 8.8125 26.8125 C 3.1874999999999964 32.4375 -3.552713678800501e-15 40.03125 0 48 L 0 48 C -3.552713678800501e-15 55.96875 3.1874999999999964 63.5625 8.8125 69.1875 C 14.437499999999996 74.8125 22.031249999999996 78 30 78 C 36.54749817789733 78 42.841832538223045 75.84810755064126 48 71.96229973307 C 53.158167461776955 75.84810755064126 59.452501822102676 78 66 78 C 73.96875 78 81.5625 74.8125 87.1875 69.1875 C 92.8125 63.5625 96 55.96875 96 48 C 96 40.03125 92.8125 32.4375 87.1875 26.8125 C 81.5625 21.1875 73.96875 18 66 18 C 59.452501822102676 18 53.15816746177697 20.15189244935875 48 24.03770026693 Z  M 53.41206095702 29.33008106861 C 57.6518317738374 34.597086414699035 60 41.16041566463407 60 48 C 60 54.83958433536593 57.65183177383741 61.40291358530096 53.41206095702 66.66991893139 C 57.090337030729614 69.16095002658746 61.46482551696006 70.5 66 70.5 C 72 70.5 77.71875 68.15625 81.9375 63.9375 C 86.15625 59.71875 88.5 54 88.5 48 C 88.5 42 86.15625 36.28125 81.9375 32.0625 C 77.71875 27.84375 72 25.5 66 25.5 C 61.464825516960055 25.5 57.090337030729614 26.839049973412543 53.41206095702 29.33008106861 Z  M 42.58793904298 29.33008106861 C 38.90966296927039 26.83904997341254 34.53517448303995 25.499999999999996 30 25.5 C 23.999999999999996 25.499999999999996 18.281249999999996 27.843749999999996 14.0625 32.0625 C 9.843749999999996 36.28125 7.4999999999999964 42 7.5 48 L 7.5 48 C 7.4999999999999964 54 9.843749999999996 59.71875 14.0625 63.9375 C 18.281249999999996 68.15625 23.999999999999996 70.5 30 70.5 C 34.535174483039945 70.5 38.90966296927039 69.16095002658746 42.58793904298 66.66991893139 C 38.348168226162606 61.40291358530096 36.00000000000001 54.83958433536593 36 48 L 36 48 C 36.00000000000001 41.16041566463407 38.348168226162606 34.597086414699035 42.58793904298 29.33008106861 Z  M 48 34.43728634112 C 50.91269008174107 38.31503687707953 52.5 43.06227984344423 52.5 48 C 52.5 52.93772015655577 50.91269008174107 57.68496312292047 48 61.56271365888 C 45.08730991825894 57.68496312292047 43.50000000000001 52.93772015655577 43.5 48 L 43.5 48 C 43.50000000000001 43.06227984344423 45.08730991825894 38.31503687707953 48 34.43728634112 Z " fill-rule="evenodd" fill="white" stroke="none"/></mask><path d=" M 48 24.03770026693 C 42.841832538223045 20.151892449358748 36.54749817789733 17.999999999999996 30 18 C 22.031249999999996 17.999999999999996 14.437499999999996 21.187499999999996 8.8125 26.8125 C 3.1874999999999964 32.4375 -3.552713678800501e-15 40.03125 0 48 L 0 48 C -3.552713678800501e-15 55.96875 3.1874999999999964 63.5625 8.8125 69.1875 C 14.437499999999996 74.8125 22.031249999999996 78 30 78 C 36.54749817789733 78 42.841832538223045 75.84810755064126 48 71.96229973307 C 53.158167461776955 75.84810755064126 59.452501822102676 78 66 78 C 73.96875 78 81.5625 74.8125 87.1875 69.1875 C 92.8125 63.5625 96 55.96875 96 48 C 96 40.03125 92.8125 32.4375 87.1875 26.8125 C 81.5625 21.1875 73.96875 18 66 18 C 59.452501822102676 18 53.15816746177697 20.15189244935875 48 24.03770026693 Z  M 53.41206095702 29.33008106861 C 57.6518317738374 34.597086414699035 60 41.16041566463407 60 48 C 60 54.83958433536593 57.65183177383741 61.40291358530096 53.41206095702 66.66991893139 C 57.090337030729614 69.16095002658746 61.46482551696006 70.5 66 70.5 C 72 70.5 77.71875 68.15625 81.9375 63.9375 C 86.15625 59.71875 88.5 54 88.5 48 C 88.5 42 86.15625 36.28125 81.9375 32.0625 C 77.71875 27.84375 72 25.5 66 25.5 C 61.464825516960055 25.5 57.090337030729614 26.839049973412543 53.41206095702 29.33008106861 Z  M 42.58793904298 29.33008106861 C 38.90966296927039 26.83904997341254 34.53517448303995 25.499999999999996 30 25.5 C 23.999999999999996 25.499999999999996 18.281249999999996 27.843749999999996 14.0625 32.0625 C 9.843749999999996 36.28125 7.4999999999999964 42 7.5 48 L 7.5 48 C 7.4999999999999964 54 9.843749999999996 59.71875 14.0625 63.9375 C 18.281249999999996 68.15625 23.999999999999996 70.5 30 70.5 C 34.535174483039945 70.5 38.90966296927039 69.16095002658746 42.58793904298 66.66991893139 C 38.348168226162606 61.40291358530096 36.00000000000001 54.83958433536593 36 48 L 36 48 C 36.00000000000001 41.16041566463407 38.348168226162606 34.597086414699035 42.58793904298 29.33008106861 Z  M 48 34.43728634112 C 50.91269008174107 38.31503687707953 52.5 43.06227984344423 52.5 48 C 52.5 52.93772015655577 50.91269008174107 57.68496312292047 48 61.56271365888 C 45.08730991825894 57.68496312292047 43.50000000000001 52.93772015655577 43.5 48 L 43.5 48 C 43.50000000000001 43.06227984344423 45.08730991825894 38.31503687707953 48 34.43728634112 Z " fill-rule="evenodd" fill="none" stroke="none" stroke-width="16" mask="url(#_mask_Ns3KKUUZ6vFPIxTemiPZd0J7AHYaryyZ)"/></svg>

<svg xmlns="http://www.w3.org/2000/svg" width="96" height="96"><path d="M48 24.038A29.895 29.895 0 0 0 30 18c-7.969 0-15.563 3.187-21.188 8.813C3.188 32.438 0 40.03 0 48c0 7.969 3.187 15.563 8.813 21.188C14.436 74.811 22.03 78 30 78a29.895 29.895 0 0 0 18-6.038A29.895 29.895 0 0 0 66 78c7.969 0 15.563-3.188 21.188-8.813C92.811 63.563 96 55.97 96 48c0-7.969-3.188-15.563-8.813-21.188C81.564 21.188 73.97 18 66 18a29.895 29.895 0 0 0-18 6.038zm5.412 5.292a29.744 29.744 0 0 1 0 37.34C57.09 69.16 61.465 70.5 66 70.5c6 0 11.719-2.344 15.938-6.563C86.156 59.72 88.5 54 88.5 48s-2.344-11.719-6.563-15.938C77.72 27.845 72 25.5 66 25.5c-4.535 0-8.91 1.339-12.588 3.83zm-10.824 0C38.91 26.84 34.535 25.5 30 25.5c-6 0-11.719 2.344-15.938 6.563C9.845 36.28 7.5 42 7.5 48s2.344 11.719 6.563 15.938C18.28 68.156 24 70.5 30 70.5c4.535 0 8.91-1.339 12.588-3.83a29.744 29.744 0 0 1 0-37.34zM48 34.437c2.913 3.878 4.5 8.625 4.5 13.563 0 4.938-1.587 9.685-4.5 13.563-2.913-3.878-4.5-8.625-4.5-13.563 0-4.938 1.587-9.685 4.5-13.563z" fill-rule="evenodd" fill="#454545"/></svg>
